dist/img/footer-logo.svg

<svg width="200" height="200" viewBox="0 0 200 200" fill="none" xmlns="http://www.w3.org/2000/svg">
<circle cx="100" cy="100" r="100" fill="#2A9556"/>
<path d="M42.1417 96.0396V89.5619H25V96.0396H28.2083V92.7702H31.9667V107.192H28.6972V110.401H38.4444V107.192H35.175V92.7702H38.9333V96.0396H42.1417Z" fill="white"/>
<path d="M47.9799 94.2674C47.9799 93.4424 48.6521 92.7396 49.5077 92.7396H53.3271C54.8244 92.7396 56.016 93.9619 56.016 95.4285C56.016 96.8952 54.7938 98.1174 53.2966 98.1174H48.316C48.1021 96.773 47.9799 95.4896 47.9799 94.2674ZM49.1105 101.326H52.4105C52.6855 101.662 53.0521 102.212 53.5716 102.915C54.091 103.617 54.4883 104.106 54.7327 104.442C55.0077 104.779 55.3744 105.206 55.8327 105.787C56.291 106.367 56.6883 106.795 56.9938 107.07C57.6355 107.59 58.7355 108.629 59.6827 109.026C61.1188 109.729 63.0744 110.37 65.4883 110.401V107.345C61.9133 107.345 58.7049 105.145 55.8633 100.745C57.8188 99.8896 59.2244 97.7508 59.2244 95.4285C59.2244 93.8091 58.6438 92.4035 57.4827 91.273C56.3521 90.1119 54.9466 89.5313 53.3271 89.5313H49.5077C48.1938 89.5313 47.0633 89.9896 46.1466 90.9369C45.2299 91.8841 44.7716 92.9841 44.7716 94.2674C44.7716 100.104 46.7883 105.695 50.8521 111.042L53.4188 109.148C51.3716 106.398 49.9355 103.801 49.1105 101.326Z" fill="white"/>
<path d="M87.5921 99.9508C87.5921 97.0785 86.5227 94.5424 84.3838 92.3119C82.2754 90.0813 79.8004 88.9813 76.9893 88.9813C74.2088 88.9813 71.7338 90.0813 69.5949 92.3119C67.4865 94.5424 66.4171 97.048 66.4171 99.8896C66.4171 102.854 67.456 105.451 69.5643 107.62C71.6727 109.79 74.1477 110.89 76.9893 110.89C79.831 110.89 82.306 109.79 84.4143 107.62C86.5227 105.451 87.5921 102.884 87.5921 99.9508ZM84.3838 99.9508C84.3838 101.967 83.6504 103.77 82.1532 105.329C80.6865 106.887 78.9754 107.681 76.9893 107.681C75.0032 107.681 73.2921 106.887 71.8254 105.329C70.3588 103.77 69.6254 101.967 69.6254 99.9508C69.6254 97.9341 70.3588 96.1313 71.8254 94.573C73.2921 92.9841 75.0032 92.1896 76.9893 92.1896C78.9754 92.1896 80.6865 92.9841 82.1532 94.5424C83.6504 96.1008 84.3838 97.9035 84.3838 99.9508Z" fill="white"/>
<path d="M98.7733 103.434C101.371 103.434 103.448 102.67 105.007 101.173C106.596 99.6758 107.39 97.873 107.39 95.8258C107.39 93.8702 106.718 92.2508 105.404 90.9369C104.09 89.623 102.409 88.9813 100.393 88.9813C98.8038 88.9813 97.3372 89.2869 96.0233 89.8674C94.7094 90.448 93.1511 91.5174 91.3483 93.0758L93.4261 95.5202C94.8622 94.2674 96.0538 93.4119 97.0316 92.9535C98.0094 92.4952 99.0788 92.2202 100.24 92.1896C102.684 92.1896 104.182 93.5952 104.182 95.8258C104.182 96.9563 103.723 97.9952 102.807 98.8813C101.89 99.7674 100.546 100.226 98.7733 100.226C96.0538 100.226 94.5872 99.0646 93.09 96.8952L92.4177 97.323C91.9594 97.6285 91.5316 97.9341 91.0733 98.2396L90.3705 98.6674C92.2344 101.876 92.5705 105.787 91.3177 110.401H94.6177C95.015 108.842 95.2594 107.498 95.2899 106.398C95.3205 105.267 95.2594 104.015 95.0455 102.64C96.2372 103.159 97.4594 103.434 98.7733 103.434Z" fill="white"/>
<path d="M113.82 89.5619H110.612V110.401H113.82V89.5619Z" fill="white"/>
<path d="M117.055 99.9813C116.994 102.945 118.064 105.512 120.294 107.742C122.525 109.973 125.122 111.012 128.025 110.92C129.522 110.92 131.386 110.431 133.678 109.484L132.455 106.52C130.53 107.315 129.033 107.712 128.025 107.712C125.978 107.804 124.144 107.04 122.555 105.481C120.997 103.892 120.233 102.059 120.264 99.9813C120.172 97.9341 120.936 96.1008 122.494 94.5424C124.083 92.9535 125.916 92.1896 127.994 92.2202C129.064 92.2202 130.561 92.6174 132.455 93.4119L133.678 90.448C131.386 89.5008 129.491 89.0119 127.994 89.0119C125.03 88.9508 122.464 90.0508 120.233 92.2813C118.003 94.5119 116.964 97.0785 117.055 99.9813Z" fill="white"/>
<path d="M145.774 89.5619H141.894L134.316 110.401H137.738L139.388 105.817H148.28L149.96 110.401H153.352L145.774 89.5619ZM140.549 102.609L143.819 93.6258L147.088 102.609H140.549Z" fill="white"/>
<path d="M159.057 107.192V89.5619H155.848V110.401H166.543V107.192H159.057Z" fill="white"/>
<path d="M174.428 109.148C173.053 107.254 172.351 105.665 172.351 104.381C172.351 103.098 172.717 101.937 173.481 100.898C174.673 99.2785 175.253 97.5063 175.253 95.5508C175.253 93.473 174.52 91.6091 172.534 88.8896L169.967 90.7841C171.342 92.6785 172.045 94.2674 172.045 95.5508C172.045 96.8035 171.648 97.9646 170.884 99.0035C169.723 100.592 169.142 102.395 169.142 104.381C169.142 106.398 170.059 108.629 171.862 111.042L174.428 109.148Z" fill="white"/>
</svg>

<svg width="200" height="200" fill="none" xmlns="http://www.w3.org/2000/svg"><circle cx="100" cy="100" r="100" fill="#2A9556"/><path d="M42.142 96.04v-6.478H25v6.478h3.208v-3.27h3.759v14.422h-3.27v3.209h9.747v-3.209h-3.269V92.77h3.758v3.27h3.209zm5.838-1.773c0-.825.672-1.527 1.528-1.527h3.82a2.693 2.693 0 0 1 2.688 2.689c0 1.466-1.222 2.688-2.72 2.688h-4.98c-.214-1.344-.336-2.627-.336-3.85zm1.13 7.059h3.3c.276.336.642.886 1.162 1.589.519.702.916 1.191 1.16 1.527.276.337.642.764 1.1 1.345.459.58.856 1.008 1.162 1.283.642.52 1.742 1.559 2.689 1.956a13.527 13.527 0 0 0 5.805 1.375v-3.056c-3.575 0-6.783-2.2-9.625-6.6 1.956-.855 3.361-2.994 3.361-5.317 0-1.619-.58-3.025-1.741-4.155-1.13-1.161-2.536-1.742-4.156-1.742h-3.82c-1.313 0-2.444.459-3.36 1.406-.917.947-1.375 2.047-1.375 3.33 0 5.837 2.016 11.428 6.08 16.775l2.567-1.894c-2.047-2.75-3.483-5.347-4.308-7.822zm38.482-1.376c0-2.871-1.07-5.408-3.208-7.638-2.109-2.23-4.584-3.33-7.395-3.33-2.78 0-5.255 1.1-7.394 3.33-2.108 2.23-3.178 4.736-3.178 7.578 0 2.964 1.039 5.561 3.147 7.73 2.109 2.17 4.584 3.27 7.425 3.27 2.842 0 5.317-1.1 7.425-3.27 2.109-2.169 3.178-4.736 3.178-7.67zm-3.208 0c0 2.017-.734 3.82-2.23 5.379-1.468 1.558-3.179 2.352-5.165 2.352-1.986 0-3.697-.794-5.164-2.352-1.466-1.559-2.2-3.362-2.2-5.378 0-2.017.734-3.82 2.2-5.378 1.467-1.589 3.178-2.383 5.164-2.383 1.986 0 3.697.794 5.164 2.352 1.497 1.559 2.23 3.361 2.23 5.409zm14.389 3.484c2.598 0 4.675-.764 6.234-2.261 1.589-1.497 2.383-3.3 2.383-5.347 0-1.956-.672-3.575-1.986-4.89-1.314-1.313-2.995-1.955-5.011-1.955-1.59 0-3.056.306-4.37.886-1.314.581-2.872 1.65-4.675 3.209l2.078 2.444c1.436-1.253 2.628-2.108 3.606-2.566a7.99 7.99 0 0 1 3.208-.764c2.444 0 3.942 1.405 3.942 3.636 0 1.13-.459 2.17-1.375 3.055-.917.886-2.261 1.345-4.034 1.345-2.72 0-4.186-1.161-5.683-3.33l-.672.427c-.459.306-.886.611-1.345.917l-.702.427c1.863 3.209 2.2 7.12.947 11.734h3.3c.397-1.559.641-2.903.672-4.003.03-1.131-.03-2.383-.245-3.758a9.184 9.184 0 0 0 3.728.794zm15.047-13.872h-3.208V110.4h3.208V89.56zm3.235 10.419c-.061 2.964 1.009 5.531 3.239 7.761 2.231 2.231 4.828 3.27 7.731 3.178 1.497 0 3.361-.489 5.653-1.436l-1.223-2.964c-1.925.795-3.422 1.192-4.43 1.192-2.047.092-3.881-.672-5.47-2.231-1.558-1.589-2.322-3.422-2.291-5.5-.092-2.047.672-3.88 2.23-5.439 1.589-1.588 3.422-2.352 5.5-2.322 1.07 0 2.567.397 4.461 1.192l1.223-2.964c-2.292-.947-4.187-1.436-5.684-1.436-2.964-.061-5.53 1.039-7.761 3.27-2.23 2.23-3.269 4.797-3.178 7.7zm28.719-10.419h-3.88l-7.578 20.839h3.422l1.65-4.584h8.892l1.68 4.584h3.392l-7.578-20.84zm-5.225 13.047l3.27-8.983 3.269 8.983h-6.539zm18.508 4.583v-17.63h-3.209V110.4h10.695v-3.209h-7.486zm15.371 1.956c-1.375-1.894-2.077-3.483-2.077-4.767 0-1.283.366-2.444 1.13-3.483 1.192-1.62 1.772-3.392 1.772-5.347 0-2.078-.733-3.942-2.719-6.661l-2.567 1.894c1.375 1.894 2.078 3.483 2.078 4.767 0 1.252-.397 2.414-1.161 3.453-1.161 1.588-1.742 3.391-1.742 5.377 0 2.017.917 4.248 2.72 6.661l2.566-1.894z" fill="#fff"/></svg>
